icons/alerts/bell-dot-24.svg

<svg width="24" height="24" viewBox="0 0 24 24" fill="none" xmlns="http://www.w3.org/2000/svg">
<path fill-rule="evenodd" clip-rule="evenodd" d="M5.00001 7C5.00001 3.565 8.31802 1 12 1C12.3208 1 12.6388 1.01948 12.9521 1.05731C13.3892 1.11008 13.645 1.55558 13.5152 1.97625C13.4006 2.34766 13.0231 2.56694 12.6362 2.53007C12.428 2.51023 12.2158 2.5 12 2.5C8.88301 2.5 6.50001 4.636 6.50001 7V11.539C6.50027 12.4767 6.22296 13.3936 5.70301 14.174L3.50301 17.472L3.50001 17.482L3.50101 17.489L3.50501 17.495L3.51101 17.499L3.51801 17.5H20.482L20.489 17.499L20.495 17.495L20.499 17.489L20.5 17.483C20.5001 17.4794 20.499 17.4759 20.497 17.473L18.298 14.174C17.778 13.393 17.5 12.477 17.5 11.539V10.0195C17.5 9.60529 17.8358 9.2695 18.25 9.2695C18.6642 9.2695 19 9.60529 19 10.0195V11.539C18.9997 12.1806 19.1894 12.808 19.545 13.342L21.745 16.64C21.8974 16.8686 21.9849 17.1343 21.9982 17.4087C22.0114 17.6831 21.95 17.956 21.8203 18.1983C21.6907 18.4405 21.4977 18.643 21.262 18.7842C21.0264 18.9254 20.7568 19 20.482 19H15.5C15.5 19.4596 15.4095 19.9148 15.2336 20.3394C15.0577 20.764 14.7999 21.1499 14.4749 21.4749C14.1499 21.7999 13.764 22.0577 13.3394 22.2336C12.9148 22.4095 12.4596 22.5 12 22.5C11.5404 22.5 11.0853 22.4095 10.6606 22.2336C10.236 22.0577 9.85015 21.7999 9.52514 21.4749C9.20014 21.1499 8.94233 20.764 8.76644 20.3394C8.59054 19.9148 8.50002 19.4596 8.50002 19H3.51901C3.24426 19.0002 2.97459 18.9259 2.73877 18.7849C2.50294 18.6439 2.30981 18.4415 2.17996 18.1994C2.05012 17.9572 1.98843 17.6844 2.00147 17.41C2.01451 17.1355 2.10179 16.8697 2.25401 16.641L4.45401 13.342C4.81003 12.8081 5.00001 12.1807 5.00001 11.539V7ZM13.4142 20.4142C13.7893 20.0391 14 19.5304 14 19H10C10 19.5304 10.2107 20.0391 10.5858 20.4142C10.9609 20.7893 11.4696 21 12 21C12.5304 21 13.0392 20.7893 13.4142 20.4142Z" fill="black"/>
<path d="M22 4C22 5.65685 20.6569 7 19 7C17.3431 7 16 5.65685 16 4C16 2.34315 17.3431 1 19 1C20.6569 1 22 2.34315 22 4Z" fill="black"/>
</svg>

<svg xmlns="http://www.w3.org/2000/svg" width="24" height="24"><path fill-rule="evenodd" d="M5 7c0-3.435 3.318-6 7-6 .32 0 .639.02.952.057.437.053.693.499.563.92-.114.37-.492.59-.879.553-.208-.02-.42-.03-.636-.03-3.117 0-5.5 2.136-5.5 4.5v4.539a4.75 4.75 0 01-.797 2.635l-2.2 3.298-.003.01.001.007.004.006.006.004.007.001h16.964l.007-.001.006-.004.004-.006.001-.006a.017.017 0 00-.003-.01l-2.199-3.299a4.753 4.753 0 01-.798-2.635v-1.52a.75.75 0 011.5 0v1.52c0 .642.19 1.269.545 1.803l2.2 3.298A1.518 1.518 0 0120.482 19H15.5a3.5 3.5 0 11-7 0H3.519a1.518 1.518 0 01-1.265-2.359l2.2-3.299A3.25 3.25 0 005 11.539V7zm8.414 13.414A2 2 0 0014 19h-4a2 2 0 003.414 1.414z"/><path d="M22 4a3 3 0 11-6 0 3 3 0 016 0z"/></svg>
